src/lib/assets/images/svelte-logo.svg

<svg width="34" height="40" viewBox="0 0 34 40" fill="none" xmlns="http://www.w3.org/2000/svg">
<path d="M30.9952 5.16042C27.3159 -0.0285597 19.9912 -1.5489 14.7255 1.72314L5.44297 7.54008C2.91138 9.09347 1.15614 11.6384 0.649825 14.5138C0.211016 16.9265 0.582316 19.4053 1.76373 21.5536C0.953616 22.7435 0.413543 24.0655 0.177262 25.4536C-0.362811 28.3952 0.346034 31.4359 2.10127 33.8486C5.81427 39.0375 13.1053 40.5579 18.371 37.2859L27.6535 31.502C30.1851 29.9486 31.9403 27.4036 32.4466 24.5282C32.8854 22.1155 32.5141 19.6367 31.3327 17.4884C32.1428 16.2986 32.6829 14.9765 32.9192 13.5884C33.493 10.6138 32.7842 7.57314 30.9952 5.16042Z" fill="#FF3E00"/>
<path d="M13.8142 34.3442C10.81 35.1044 7.67086 33.9476 5.91562 31.4688C4.83548 30.0145 4.43042 28.1967 4.73421 26.412C4.80172 26.1145 4.86923 25.8501 4.93674 25.5527L5.10551 25.0239L5.57808 25.3544C6.69198 26.1476 7.90714 26.7425 9.22357 27.1391L9.56111 27.2383L9.52736 27.5688C9.4936 28.0315 9.62862 28.5273 9.89866 28.9239C10.4387 29.684 11.3839 30.0476 12.2952 29.8162C12.4978 29.7501 12.7003 29.684 12.8691 29.5849L22.1178 23.801C22.5904 23.5035 22.8942 23.0739 22.9954 22.5451C23.0967 22.0162 22.9617 21.4544 22.6579 21.0247C22.1178 20.2645 21.1727 19.934 20.2613 20.1654C20.0588 20.2315 19.8562 20.2976 19.6875 20.3967L16.1432 22.6112C15.5694 22.9747 14.9281 23.2391 14.253 23.4044C11.2488 24.1645 8.10967 23.0078 6.35443 20.5289C5.30804 19.0747 4.86923 17.2569 5.20678 15.4722C5.51057 13.7535 6.59071 12.2001 8.10967 11.2747L17.3922 5.49082C17.966 5.12726 18.6073 4.86285 19.2824 4.66454C22.2866 3.90437 25.4257 5.06115 27.181 7.53997C28.2611 8.9942 28.6662 10.812 28.3624 12.5967C28.2949 12.8942 28.2274 13.1586 28.1261 13.4561L27.9573 13.9849L27.4848 13.6544C26.3709 12.8612 25.1557 12.2662 23.8393 11.8696L23.5017 11.7705L23.5355 11.44C23.5692 10.9773 23.4342 10.4815 23.1642 10.0849C22.6241 9.32471 21.679 8.9942 20.7676 9.22556C20.5651 9.29166 20.3626 9.35776 20.1938 9.45692L10.945 15.2408C10.4725 15.5383 10.1687 15.9679 10.0674 16.4967C9.96617 17.0256 10.1012 17.5874 10.405 18.0171C10.945 18.7773 11.8902 19.1078 12.8015 18.8764C13.0041 18.8103 13.2066 18.7442 13.3754 18.6451L16.9196 16.4306C17.4934 16.0671 18.1348 15.8027 18.8099 15.6044C21.814 14.8442 24.9532 16.001 26.7084 18.4798C27.7886 19.934 28.1936 21.7518 27.8898 23.5366C27.586 25.2552 26.5059 26.8086 24.9869 27.734L15.7044 33.5179C15.1306 33.8815 14.4893 34.1459 13.8142 34.3442Z" fill="white"/>
</svg>

<svg xmlns="http://www.w3.org/2000/svg" width="34" height="40" fill="none"><path fill="#FF3E00" d="M30.995 5.16c-3.68-5.189-11.004-6.709-16.27-3.437L5.444 7.54C2.911 9.093 1.156 11.638.65 14.514c-.439 2.413-.068 4.891 1.114 7.04a9.86 9.86 0 0 0-1.587 3.9 10.939 10.939 0 0 0 1.924 8.395c3.713 5.189 11.004 6.709 16.27 3.437l9.283-5.784c2.531-1.553 4.286-4.098 4.793-6.974.438-2.412.067-4.891-1.114-7.04a9.86 9.86 0 0 0 1.586-3.9 10.713 10.713 0 0 0-1.924-8.428Z"/><path fill="#fff" d="M13.814 34.344c-3.004.76-6.143-.396-7.898-2.875-1.08-1.454-1.486-3.272-1.182-5.057.068-.297.135-.562.203-.86l.169-.528.472.33a12.417 12.417 0 0 0 3.646 1.785l.337.1-.034.33c-.033.463.102.958.372 1.355a2.257 2.257 0 0 0 2.396.892c.203-.066.405-.132.574-.231l9.249-5.784c.472-.297.776-.727.877-1.256a2.017 2.017 0 0 0-.337-1.52c-.54-.76-1.485-1.091-2.397-.86-.202.067-.405.133-.573.232l-3.545 2.214a6.352 6.352 0 0 1-1.89.793c-3.004.76-6.143-.396-7.899-2.875-1.046-1.454-1.485-3.272-1.147-5.057.304-1.718 1.384-3.272 2.903-4.197l9.282-5.784c.574-.364 1.215-.628 1.89-.826 3.005-.76 6.144.396 7.899 2.875 1.08 1.454 1.485 3.272 1.181 5.057a8.13 8.13 0 0 1-.236.86l-.169.528-.472-.33a12.418 12.418 0 0 0-3.646-1.785l-.337-.1.034-.33a2.178 2.178 0 0 0-.372-1.355c-.54-.76-1.485-1.09-2.396-.86-.203.067-.405.133-.574.232l-9.249 5.784c-.473.297-.776.727-.878 1.256-.1.529.034 1.09.338 1.52.54.76 1.485 1.09 2.397.86.202-.067.405-.133.573-.232l3.545-2.214c.573-.364 1.215-.628 1.89-.827 3.004-.76 6.143.397 7.898 2.876 1.08 1.454 1.486 3.272 1.182 5.057-.304 1.718-1.384 3.272-2.903 4.197l-9.283 5.784c-.573.364-1.215.628-1.89.826Z"/></svg>
